images/brands/defacto.svg

<svg fill="none" height="180" viewBox="0 0 520 180" width="520" xmlns="http://www.w3.org/2000/svg" xmlns:xlink="http://www.w3.org/1999/xlink"><clipPath id="a"><path d="m111 53h298v75h-298z"/></clipPath><g clip-path="url(#a)" fill="#000"><path d="m224.647 54.0101c-9.282 3.2531-13.725 9.2757-13.725 18.7273v3.9125h-2.639c-1.452 0-2.64.1319-2.64.3516 0 .1759 1.144.9671 2.596 1.7586 2.507 1.3628 2.551 1.4506 2.859 3.6926.132 1.2748.264 10.4186.264 20.3543v18.023l-2.288 2.067-2.331 2.066 12.669.044c6.951 0 12.626-.132 12.626-.352 0-.176-.968-1.099-2.2-2.066l-2.199-1.759v-20.573c0-19.4748.044-20.6179.792-20.3102.396.1319 2.859.3958 5.498.5277l4.707.2638v-4.0884h-10.909l-2.508-2.7256c-4.839-5.2313-7.742-10.6385-7.082-13.2762.967-3.9564 5.411-3.7806 10.469.4396 2.728 2.286 6.247 6.7261 7.875 9.8912.704 1.4507 1.452 2.5937 1.628 2.5937.572-.044 8.05-12.7926 7.918-13.5399-.22-1.143-5.235-4.7038-8.138-5.8028-1.628-.6155-3.915-1.0551-6.291-1.187-3.167-.1318-4.223 0-6.951.9672z"/><path clip-rule="evenodd" d="m147.135 56.2521c-1.962.6126-4.047 1.2538-5.881 1.8176-2.113.6496-3.894 1.197-4.765 1.4794-1.672.4836-2.992 1.055-2.992 1.2309 0 .2198 1.276.8352 2.86 1.4067l2.903 1.0111-.264 13.1444-3.299-.0881c-10.47-.2638-19.796 6.5063-23.139 16.7932-1.54 4.7477-1.936 12.9247-.88 17.8917 1.847 8.749 7.654 14.595 15.573 15.694l1.935.264 5.411-5.495 5.411-5.451.264 2.593c.616 5.803 2.948 8.397 7.391 8.089 3.123-.176 5.234-1.538 8.358-5.319 3.3-4 6.687-9.012 6.291-9.408-.132-.176-1.672.44-3.344 1.319-1.627.923-3.123 1.671-3.255 1.671s-.22-13.76-.22-30.5531c0-16.7929-.132-30.5527-.308-30.5087-.22 0-3.827 1.099-8.05 2.4179zm-11.042 23.563c.572.4835 1.452 1.8463 1.98 2.9453.879 1.9343.923 2.8134 1.055 16.8809l.132 14.8147-1.891.879c-2.86 1.319-4.136 1.143-6.071-.791-3.036-2.989-4.179-9.496-3.827-21.5847.22-8.4406.747-10.9024 2.815-12.9684 1.496-1.4947 4.311-1.5827 5.807-.1758z" fill-rule="evenodd"/><path d="m334.977 76.65 6.863-7.913c3.783-4.3521 7.083-7.7811 7.258-7.6492.22.1319.397 3.6927.397 7.9129v7.6493h9.677v4.0884l-4.75-.3078-4.797-.2638-.263 6.2424c-.439 9.4955-.353 23.2108.133 25.0578 1.011 3.517 4.574 4.835 8.094 2.945.923-.483 1.804-.791 1.892-.659.835.835-8.975 10.902-11.922 12.309-3.607 1.714-9.064.22-11.395-3.077-2.331-3.298-2.507-4.968-2.814-24.6186l-.265-18.1118-2.551-1.4506c-1.452-.8353-2.595-1.6266-2.595-1.8463 0-.1758 1.583-.3077 3.519-.3077z"/><path clip-rule="evenodd" d="m184.307 75.5948c-10.69 2.7256-17.553 8.3965-20.5 16.881-1.364 3.8684-1.672 11.8252-.66 15.8702 2.772 10.902 12.054 18.111 23.36 18.199 3.827 0 4.047-.044 6.158-1.494 2.684-1.891 13.462-12.353 13.198-12.837-.132-.176-1.452.176-2.904.747-3.475 1.407-6.158 1.715-9.414 1.055-3.651-.747-7.126-2.681-10.03-5.627-2.199-2.242-5.587-7.121-5.587-8.088 0-.176 2.772-.3519 6.115-.3519 4.971 0 6.687-.1758 9.106-.9232 3.652-1.0989 9.15-3.9125 10.91-5.495 1.144-1.0551 1.232-1.407 1.012-3.4291-.528-5.9347-4.531-11.4298-9.766-13.408-2.596-1.0112-8.93-1.6266-10.998-1.099zm-1.54 5.0994c2.904 1.9782 5.147 7.6493 5.939 14.7708l.308 2.7697-12.186-.2638-.791-2.8575c-1.144-3.9126-1.232-10.6825-.176-12.6168 1.539-2.8575 4.267-3.5607 6.906-1.8024z" fill-rule="evenodd"/><path clip-rule="evenodd" d="m244.311 86.2334c4.399-4.7918 10.602-8.7042 16.321-10.1989 3.123-.8354 7.654-.8793 10.294-.088 3.343 1.0112 5.323 2.5937 6.598 5.2315 1.804 3.6487 2.024 7.5611 1.364 21.409-.352 6.638-.572 12.133-.484 12.221.088.044 1.452-.572 2.992-1.451 2.815-1.538 3.871-1.846 3.871-1.187 0 .616-6.203 9.056-8.051 10.99-3.959 4.045-8.886 4.792-11.745 1.759-1.496-1.539-1.892-2.858-2.156-7.166l-.264-3.956-1.54 2.857c-.835 1.583-2.815 4.176-4.398 5.803-2.332 2.33-3.388 3.033-5.28 3.605-6.246 1.846-12.361-.22-14.341-4.968-.968-2.33-.791-6.902.44-9.495 2.2-4.704 7.435-8.397 19.4-13.7161l5.279-2.3299-.132-3.1652c-.132-3.8684-.704-6.1105-2.155-8.6162-1.98-3.4729-5.675-4.0883-7.743-1.3189-1.231 1.6267-1.451 5.4512-.572 9.5835.396 1.8024.528 3.3849.352 3.5607-.484.4397-16.496 4.8361-16.716 4.5721-.748-.7034 4.971-9.9352 8.666-13.9356zm10.954 29.1456c1.451.572 4.487-.879 5.983-2.813 1.143-1.495 1.187-1.583 1.055-8.001l-.132-6.5063-3.167 2.5493c-1.76 1.363-3.915 3.605-4.839 4.924-1.408 2.066-1.628 2.726-1.672 4.968 0 2.725.792 4.132 2.772 4.879z" fill-rule="evenodd"/><path d="m302.864 76.7818c-4.971 1.7145-8.403 3.8685-11.482 7.2534-5.895 6.4183-7.962 16.8808-5.147 25.9808 1.276 4.132 2.2 5.759 4.971 8.748 4.399 4.748 9.986 7.386 16.717 7.869 4.223.308 5.411-.176 10.426-4.22 3.959-3.253 10.733-10.023 10.337-10.419-.131-.132-1.759.264-3.563.924-9.722 3.56-19.004-1.539-24.899-13.6284-2.111-4.2642-3.519-9.4075-3.519-12.6166 0-6.2424 4.311-9.0121 8.358-5.3192 2.816 2.5056 6.599 11.3858 6.599 15.4301 0 .4835.176 1.0112.352 1.1431.22.1317 3.871-2.7697 8.138-6.3744l7.787-6.5942-.748-1.3628c-1.056-1.8022-4.311-4.6158-6.775-5.8467-5.499-2.8135-11.262-3.1212-17.552-.9671z"/><path clip-rule="evenodd" d="m367.662 82.4966c2.949-2.8573 7.523-5.451 11.439-6.5061 9.589-2.5498 20.674 2.6376 25.162 11.7814 2.112 4.3961 2.861 7.6491 2.861 12.8361 0 7.826-2.157 13.453-6.996 18.288-3.344 3.297-6.379 5.144-11.129 6.726-7.347 2.462-15.397.703-21.337-4.704-3.124-2.857-5.057-5.89-6.598-10.287-1.055-3.033-1.188-4.044-1.188-8.924 0-4.7035.177-5.9782 1.144-8.8796 1.452-4.3081 3.167-6.9898 6.642-10.3308zm20.983 13.5399c-3.386-8.6603-6.774-14.1554-9.721-15.6501-2.947-1.5386-5.278-.2636-5.894 3.2532-1.101 6.5063 5.411 26.6404 11.086 34.4654 2.858 3.868 6.51 5.363 8.445 3.429 2.596-2.594.969-12.925-3.916-25.4975z" fill-rule="evenodd"/></g></svg>

<svg width="520" height="180" viewBox="0 0 520 180" fill="none" xmlns="http://www.w3.org/2000/svg">
<g clip-path="url(#clip0_2001_107)">
<path d="M224.647 54.0101C215.365 57.2632 210.922 63.2858 210.922 72.7374V76.6499H208.283C206.831 76.6499 205.643 76.7818 205.643 77.0015C205.643 77.1774 206.787 77.9686 208.239 78.7601C210.746 80.1229 210.79 80.2107 211.098 82.4527C211.23 83.7275 211.362 92.8713 211.362 102.807V120.83L209.074 122.897L206.743 124.963L219.412 125.007C226.363 125.007 232.038 124.875 232.038 124.655C232.038 124.479 231.07 123.556 229.838 122.589L227.639 120.83V100.257C227.639 80.7822 227.683 79.6391 228.431 79.9468C228.827 80.0787 231.29 80.3426 233.929 80.4745L238.636 80.7383V76.6499H227.727L225.219 73.9243C220.38 68.693 217.477 63.2858 218.137 60.6481C219.104 56.6917 223.548 56.8675 228.606 61.0877C231.334 63.3737 234.853 67.8138 236.481 70.9789C237.185 72.4296 237.933 73.5726 238.109 73.5726C238.681 73.5286 246.159 60.78 246.027 60.0327C245.807 58.8897 240.792 55.3289 237.889 54.2299C236.261 53.6144 233.974 53.1748 231.598 53.0429C228.431 52.9111 227.375 53.0429 224.647 54.0101Z" fill="black"/>
<path fill-rule="evenodd" clip-rule="evenodd" d="M147.135 56.2521C145.173 56.8647 143.088 57.5059 141.254 58.0697C139.141 58.7193 137.36 59.2667 136.489 59.5491C134.817 60.0327 133.497 60.6041 133.497 60.78C133.497 60.9998 134.773 61.6152 136.357 62.1867L139.26 63.1978L138.996 76.3422L135.697 76.2541C125.227 75.9903 115.901 82.7604 112.558 93.0473C111.018 97.795 110.622 105.972 111.678 110.939C113.525 119.688 119.332 125.534 127.251 126.633L129.186 126.897L134.597 121.402L140.008 115.951L140.272 118.544C140.888 124.347 143.22 126.941 147.663 126.633C150.786 126.457 152.897 125.095 156.021 121.314C159.321 117.314 162.708 112.302 162.312 111.906C162.18 111.73 160.64 112.346 158.968 113.225C157.341 114.148 155.845 114.896 155.713 114.896C155.581 114.896 155.493 101.136 155.493 84.3429C155.493 67.55 155.361 53.7902 155.185 53.8342C154.965 53.8342 151.358 54.9332 147.135 56.2521ZM136.093 79.8151C136.665 80.2986 137.545 81.6614 138.073 82.7604C138.952 84.6947 138.996 85.5738 139.128 99.6413L139.26 114.456L137.369 115.335C134.509 116.654 133.233 116.478 131.298 114.544C128.262 111.555 127.119 105.048 127.471 92.9593C127.691 84.5187 128.218 82.0569 130.286 79.9909C131.782 78.4962 134.597 78.4082 136.093 79.8151Z" fill="black"/>
<path d="M334.977 76.65L341.84 68.737C345.623 64.3849 348.923 60.9559 349.098 61.0878C349.318 61.2197 349.495 64.7805 349.495 69.0007V76.65H359.172V80.7384L354.422 80.4306L349.625 80.1668L349.362 86.4092C348.923 95.9047 349.009 109.62 349.495 111.467C350.506 114.984 354.069 116.302 357.589 114.412C358.512 113.929 359.393 113.621 359.481 113.753C360.316 114.588 350.506 124.655 347.559 126.062C343.952 127.776 338.495 126.282 336.164 122.985C333.833 119.687 333.657 118.017 333.35 98.3664L333.085 80.2546L330.534 78.804C329.082 77.9687 327.939 77.1774 327.939 76.9577C327.939 76.7819 329.522 76.65 331.458 76.65H334.977Z" fill="black"/>
<path fill-rule="evenodd" clip-rule="evenodd" d="M184.307 75.5948C173.617 78.3204 166.754 83.9913 163.807 92.4758C162.443 96.3442 162.135 104.301 163.147 108.346C165.919 119.248 175.201 126.457 186.507 126.545C190.334 126.545 190.554 126.501 192.665 125.051C195.349 123.16 206.127 112.698 205.863 112.214C205.731 112.038 204.411 112.39 202.959 112.961C199.484 114.368 196.801 114.676 193.545 114.016C189.894 113.269 186.419 111.335 183.515 108.389C181.316 106.147 177.928 101.268 177.928 100.301C177.928 100.125 180.7 99.9491 184.043 99.9491C189.014 99.9491 190.73 99.7733 193.149 99.0259C196.801 97.927 202.299 95.1134 204.059 93.5309C205.203 92.4758 205.291 92.1239 205.071 90.1018C204.543 84.1671 200.54 78.672 195.305 76.6938C192.709 75.6826 186.375 75.0672 184.307 75.5948ZM182.767 80.6942C185.671 82.6724 187.914 88.3435 188.706 95.465L189.014 98.2347L176.828 97.9709L176.037 95.1134C174.893 91.2008 174.805 84.4309 175.861 82.4966C177.4 79.6391 180.128 78.9359 182.767 80.6942Z" fill="black"/>
<path fill-rule="evenodd" clip-rule="evenodd" d="M244.311 86.2334C248.71 81.4416 254.913 77.5292 260.632 76.0345C263.755 75.1991 268.286 75.1552 270.926 75.9465C274.269 76.9577 276.249 78.5402 277.524 81.178C279.328 84.8267 279.548 88.7391 278.888 102.587C278.536 109.225 278.316 114.72 278.404 114.808C278.492 114.852 279.856 114.236 281.396 113.357C284.211 111.819 285.267 111.511 285.267 112.17C285.267 112.786 279.064 121.226 277.216 123.16C273.257 127.205 268.33 127.952 265.471 124.919C263.975 123.38 263.579 122.061 263.315 117.753L263.051 113.797L261.511 116.654C260.676 118.237 258.696 120.83 257.113 122.457C254.781 124.787 253.725 125.49 251.833 126.062C245.587 127.908 239.472 125.842 237.492 121.094C236.524 118.764 236.701 114.192 237.932 111.599C240.132 106.895 245.367 103.202 257.332 97.8829L262.611 95.553L262.479 92.3878C262.347 88.5194 261.775 86.2773 260.324 83.7716C258.344 80.2987 254.649 79.6833 252.581 82.4527C251.35 84.0794 251.13 87.9039 252.009 92.0362C252.405 93.8386 252.537 95.4211 252.361 95.5969C251.877 96.0366 235.865 100.433 235.645 100.169C234.897 99.4656 240.616 90.2338 244.311 86.2334ZM255.265 115.379C256.716 115.951 259.752 114.5 261.248 112.566C262.391 111.071 262.435 110.983 262.303 104.565L262.171 98.0587L259.004 100.608C257.244 101.971 255.089 104.213 254.165 105.532C252.757 107.598 252.537 108.258 252.493 110.5C252.493 113.225 253.285 114.632 255.265 115.379Z" fill="black"/>
<path d="M302.864 76.7818C297.893 78.4963 294.461 80.6503 291.382 84.0352C285.487 90.4535 283.42 100.916 286.235 110.016C287.511 114.148 288.435 115.775 291.206 118.764C295.605 123.512 301.192 126.15 307.923 126.633C312.146 126.941 313.334 126.457 318.349 122.413C322.308 119.16 329.082 112.39 328.686 111.994C328.555 111.862 326.927 112.258 325.123 112.918C315.401 116.478 306.119 111.379 300.224 99.2896C298.113 95.0254 296.705 89.8821 296.705 86.673C296.705 80.4306 301.016 77.6609 305.063 81.3538C307.879 83.8594 311.662 92.7396 311.662 96.7839C311.662 97.2674 311.838 97.7951 312.014 97.927C312.234 98.0587 315.885 95.1573 320.152 91.5526L327.939 84.9584L327.191 83.5956C326.135 81.7934 322.88 78.9798 320.416 77.7489C314.917 74.9354 309.154 74.6277 302.864 76.7818Z" fill="black"/>
<path fill-rule="evenodd" clip-rule="evenodd" d="M367.662 82.4966C370.611 79.6393 375.185 77.0456 379.101 75.9905C388.69 73.4407 399.775 78.6281 404.263 87.7719C406.375 92.168 407.124 95.421 407.124 100.608C407.124 108.434 404.967 114.061 400.128 118.896C396.784 122.193 393.749 124.04 388.999 125.622C381.652 128.084 373.602 126.325 367.662 120.918C364.538 118.061 362.605 115.028 361.064 110.631C360.009 107.598 359.876 106.587 359.876 101.707C359.876 97.0035 360.053 95.7288 361.02 92.8274C362.472 88.5193 364.187 85.8376 367.662 82.4966ZM388.645 96.0365C385.259 87.3762 381.871 81.8811 378.924 80.3864C375.977 78.8478 373.646 80.1228 373.03 83.6396C371.929 90.1459 378.441 110.28 384.116 118.105C386.974 121.973 390.626 123.468 392.561 121.534C395.157 118.94 393.53 108.609 388.645 96.0365Z" fill="black"/>
</g>
<defs>
<clipPath id="clip0_2001_107">
<rect width="298" height="75" fill="white" transform="translate(111 53)"/>
</clipPath>
</defs>
</svg>
